X:1
T: After All
C:Bruce Shawyer
R:Strathspey
Q:128
K:G
M:4/4
L:1/16
|:B3A G3F G3B g3f|e3f ge3 d8|c3d eg3 B3d gb3|a3b a3g f3e d4|
B3A G3F G3B g3f|e3f ge3 d8|c3d eg3 B3d gb3|a3f d3f g8|
e3c G3E D3G B3d|c3A Ec3 B8|c3A F3E D3F A3c|B3A B3c B8|
e3c G3E D3G B3d|c3A Ec3 B8|c3d eg3 B3d gb3|a3f d3f|g8:|
